X:1
T:Capt. Higgins
T:Capt. Higgins
T:Captain Higgins
T:Carollan
C:Carollan
%%score 1 2
L:1/8
M:6/8
K:C
V:1 treble 
V:2 bass 
V:1
 c3 A2 e | c2 B dBG | cea cea | Bdg Bdg | e3 c2 e | f2 e dcB | cBA dB^G | A3 A3 |] ece ece | %9
 gcg gcg | ada ada |{b} c'3 b3 | e'(c'/d'/e') d'bd' | e'(c'/d'/e') d'bd' | c'ba ^geg | %15
 [ca]3 [ca]3 |] %16
V:2
 A,3 A,,3 | E,3 E,3 | A,3 A,,3 | G,3 G,3 | C3 C,3 | D,2 C, B,,A,,G,, | A,,2 C, D,2 E, | %7
 A,E,C, A,,3 |] C,3 C,3 | E,3 E,3 | F,3 F,3 | A,CA, ^G,F,E, | C3 B,3 | C3 B,3 | A,2 D, E,2 E,, | %15
 A,,3 A,,3 |] %16

